X:164
T:New Fandango THO4.164, The
M:6/8
L:1/8
Z:vmp. Peter Dunk 2010/11.from a transcription by Fynn Titford-Mock 2007
B:Thompson's Compleat Collection of 200 Favourite Country Dances Volume IV.
Q:3/8=120
K:A
E|A2 A G2 G|A2 A B2 c|d2 d cBA|AGA B2::e|efe E2 e|E2 e edc|
ded D2 d|D2 d dcB|ABA G2 G| A2 A B2 c|d2 d cBA|ABG A2:|
